dist/icons/socials/instagram.svg

<svg width="30" height="30" viewBox="0 0 30 30" fill="none" xmlns="http://www.w3.org/2000/svg">
<path d="M10.1514 15.1201C10.1514 13.7399 10.6344 12.5667 11.6006 11.6006C12.5667 10.6344 13.7399 10.1514 15.1201 10.1514C16.5003 10.1514 17.6735 10.6344 18.6396 11.6006C19.6058 12.5667 20.0889 13.7399 20.0889 15.1201C20.0889 16.5003 19.6058 17.6735 18.6396 18.6396C17.6735 19.6058 16.5003 20.0889 15.1201 20.0889C13.7399 20.0889 12.5667 19.6058 11.6006 18.6396C10.6344 17.6735 10.1514 16.5003 10.1514 15.1201ZM28.3701 13.4639V25.0576C28.3701 25.972 28.0466 26.7527 27.3997 27.3997C26.7527 28.0466 25.972 28.3701 25.0576 28.3701H5.18262C4.26823 28.3701 3.48755 28.0466 2.84058 27.3997C2.1936 26.7527 1.87012 25.972 1.87012 25.0576V5.18262C1.87012 4.26823 2.1936 3.48755 2.84058 2.84058C3.48755 2.1936 4.26823 1.87012 5.18262 1.87012H25.0576C25.972 1.87012 26.7527 2.1936 27.3997 2.84058C28.0466 3.48755 28.3701 4.26823 28.3701 5.18262V10.1514H21.7451C20.9688 9.13346 20.0026 8.3269 18.8467 7.73169C17.6908 7.13647 16.4486 6.83887 15.1201 6.83887C13.7917 6.83887 12.5495 7.13647 11.3936 7.73169C10.2376 8.3269 9.27148 9.13346 8.49512 10.1514H1.87012V13.4639H6.99414C6.89062 14.016 6.83887 14.568 6.83887 15.1201C6.83887 16.6211 7.2098 18.0056 7.95166 19.2737C8.69352 20.5417 9.69849 21.5467 10.9666 22.2886C12.2346 23.0304 13.6191 23.4014 15.1201 23.4014C16.6211 23.4014 18.0056 23.0304 19.2737 22.2886C20.5417 21.5467 21.5467 20.5417 22.2886 19.2737C23.0304 18.0056 23.4014 16.6211 23.4014 15.1201C23.4014 14.568 23.3496 14.016 23.2461 13.4639H28.3701Z" fill="black" fill-opacity="0.5"/>
</svg>

<svg width="30" height="30" fill="none" xmlns="http://www.w3.org/2000/svg"><path d="M10.151 15.12c0-1.38.483-2.553 1.45-3.52.966-.966 2.139-1.449 3.52-1.449 1.38 0 2.553.483 3.519 1.45.966.966 1.449 2.139 1.449 3.52 0 1.38-.483 2.553-1.45 3.519-.965.966-2.139 1.449-3.519 1.449-1.38 0-2.553-.483-3.52-1.45-.966-.965-1.449-2.139-1.449-3.519zm18.22-1.656v11.594c0 .914-.324 1.695-.971 2.342a3.192 3.192 0 01-2.342.97H5.183a3.192 3.192 0 01-2.342-.97 3.192 3.192 0 01-.97-2.342V5.183c0-.915.323-1.695.97-2.342a3.191 3.191 0 012.342-.97h19.875c.914 0 1.695.323 2.342.97s.97 1.427.97 2.342v4.968h-6.625a8.476 8.476 0 00-2.898-2.42 8.023 8.023 0 00-3.727-.892c-1.328 0-2.57.297-3.726.893a8.475 8.475 0 00-2.899 2.42H1.87v3.312h5.124a8.968 8.968 0 00-.155 1.656 8.08 8.08 0 001.113 4.154 8.283 8.283 0 003.015 3.015A8.08 8.08 0 0015.12 23.4a8.08 8.08 0 004.154-1.112 8.284 8.284 0 003.015-3.015A8.08 8.08 0 0023.4 15.12a8.97 8.97 0 00-.155-1.656h5.124z" fill="#000" fill-opacity=".5"/></svg>
